!!!COM: Scriabin, Alexander
!!!OTL@@FR: Prélude en do dièse mineur
!!!OTL@@EN: Prelude in C# Minor
!!!OPR@@FR: 4 Préludes
!!!OPR@@EN: 4 Preludes
!!!OPS: 22
!!!ONM: 2
!!!ODT: 1897
!!!AGN: Prelude
**kern	**kern	**dynam
*staff2	*staff1	*staff1/2
*Ipiano	*Ipiano	*
*clefF4	*clefG2	*
*k[f#c#g#d#]	*k[f#c#g#d#]	*
*c#:	*c#:	*
*M6/8	*M6/8	*
=1	=1	=1
*^	*^	*
8c#L	[4.e	4.g#	8eeL	.
8B#X	.	.	8gg#	.
8BnJ	.	.	8dd#J	.
4.A#X	4e]	4g#	8cc##XL	.
.	.	.	8aa#X	.
.	8e	8g#	8cc#XJ	.
=2	=2	=2	=2	=2
8.AnL	8.eL	8.aL	8cc#L	.
.	.	.	8ee	.
8.G#J	8.c#J	8.eJ	.	.
.	.	.	8bJ	.
4.F##X	8eL	8aL	8dd#L	.
.	8c#	8e	8a	.
.	8AJ	8c#J	8cc#J	.
=3	=3	=3	=3	=3
8F#L	2.A	2.c#	8aL	.
8E#X	.	.	8cc#	.
8EnJ	.	.	8g#J	.
4.D#	.	.	8f##XL	.
.	.	.	8dd#	.
.	.	.	8cc#J	.
=4	=4	=4	=4	=4
8E	8G#	2.c#	4.cc#	.
*v	*v	*	*	*
8CC#L	.	.	.
8GG#J	.	.	.
8D#L	.	4.g#	.
8E	.	.	.
8G#J	.	.	.
=5	=5	=5	=5
*^	*	*	*
8c#L	[4.e	4.g#	8eeL	.
8B#X	.	.	8gg#	.
8BnJ	.	.	8dd#J	.
4.A#X	4e]	4g#	8cc##XL	.
.	.	.	8aa#X	.
.	8e	8g#	8cc#XJ	.
!!LO:LB:g=original
=6	=6	=6	=6	=6
8.AnL	8.eL	8.aL	8cc#L	.
.	.	.	8ee	.
8.G#J	8.c#J	8.eJ	.	.
.	.	.	8bJ	.
4.F##X	8.eL	8.aL	8dd#L	.
.	.	.	8a	.
.	8.c#J	8.eJ	.	.
.	.	.	8cc#J	.
=7	=7	=7	=7	=7
4F#	4.c#	4.e	8aL	.
.	.	.	8b	.
8G#	.	.	8g#J	.
4.A	4c#	4e	8f#L	.
.	.	.	8cc#	.
.	8d#	8f#	16r	.
.	.	.	16bJk	.
=8	=8	=8	=8	=8
8G#	8e	4.g#	4.b	.
*v	*v	*	*	*
8EEL	.	.	.
8BBJ	.	.	.
8F#L	4.r	4.e	.
8G#	.	.	.
8BJ	.	.	.
=9	=9	=9	=9
*^	*	*	*
2.E	8BL	2.g#	8r	.
.	8c#	.	8a#XL	.
.	8BJ	.	8bJ	.
*	*	*	*^	*
.	4.A#X	.	8b#XL	8ryy	.
.	.	.	8cc#	8gg#L	.
.	.	.	8cc##XJ	8aa#XJ	.
=10	=10	=10	=10	=10	=10
4.D#	4.A#X	4.f##X\	8dd#/	8aa#XL	.
*	*	*	*v	*v	*
.	.	.	8ff##X	.
.	.	.	8cc##XJ	.
4.A#	8c#XL	4.f##	8eeL	.
.	8d#	.	8dd#	.
.	8eJ	.	8ddnJ	.
!!LO:LB:g=original
=11	=11	=11	=11	=11
2.An	8eL	4.an 4.cc#X	8r	.
.	8f#	.	8dd#XL	.
.	8eJ	.	8eeJ	.
*	*	*	*^	*
.	4.d#	4.cc#\	8ee#X/L	8ryy	.
.	.	.	8ff#	8ccc#L	.
.	.	.	8ff##XJ	8ddd#J	.
=12	=12	=12	=12	=12	=12
2.G#	4.d#	4.b#X\	8gg#/	8ddd#L	.
*	*	*	*v	*v	*
.	.	.	8bb#X	.
.	.	.	8ff##XJ	.
.	4.f#X	4.b#	8aaL	.
.	.	.	8gg#	.
.	.	.	8dd#J	.
=13	=13	=13	=13	=13
8c#L	4.e	4.g#	8eeL	.
8B#X	.	.	8gg#	.
8BnJ	.	.	8dd#J	.
4.A#X	4e	4g#	8cc##XL	.
.	.	.	8aa#X	.
.	8e	8g#	8cc#XJ	.
=14	=14	=14	=14	=14
8.AnL	8.eL	8.aL	8cc#L	.
.	.	.	8ee	.
8.G#J	8.c#J	8.eJ	.	.
.	.	.	8bJ	.
4.F##X	8eL	8aL	8dd#L	.
.	8c#	8e	8a	.
.	8AJ	8c#J	8cc#J	.
=15	=15	=15	=15	=15
8F#L	[4.A	4.c#	8aL	.
8E#X	.	.	8cc#	.
8EnJ	.	.	8g#J	.
4.D#	4A]	4c#	8f##XL	.
.	.	.	8dd#	.
.	8A	8c#	8f#XJ	.
!!LO:LB:g=original
=16	=16	=16	=16	=16
8.DnL	8.AL	8.dnL	8f#L	.
.	.	.	8a	.
8.C#J	8.F#J	8.AJ	.	.
.	.	.	8eJ	.
4.BB#X	8AL	8dL	8g#L	.
.	8F#	8A	8d	.
.	8DJ	8F#J	8f#J	.
=17	=17	=17	=17	=17
8BBnL	4.Dn	4.F#	8dnL	.
8AA#X	.	.	8f#	.
8AAnJ	.	.	8c#J	.
4.GG#	4D	4.F#	8B#XL	.
.	.	.	8g#	.
.	8D#X	.	16ra	.
.	.	.	16g#Jk	.
=18	=18	=18	=18	=18
8GG#L	4.E	4.E 4.c#	4.g#	.
8CC#	.	.	.	.
8GG#J	.	.	.	.
*	*	*v	*v	*
*v	*v	*	*
8D#L	4.r	.
8F#	.	.
8EJ	.	.
=19	=19	=19
*^	*^	*
4.AA	4.Dn	4.F#	8dnL	.
.	.	.	8f#	.
.	.	.	8c#J	.
4.GG#	4D	4.F#	8B#XL	.
.	.	.	8g#	.
.	8D#X	.	16ra	.
.	.	.	16g#Jk	.
*	*	*v	*v	*
=20	=20	=20	=20
8GG#	8E	2.E 2.c# 2.g#	.
*v	*v	*	*
[8CC#L	.	.
8CC#J_ [8GG#	.	.
4.CC#] 4.GG#] 4.E	.	.
==	==	==
*-	*-	*-
!!!system-decoration: {(*)}
!!!filter: flipper -a
!!!ENC: Bryan Jacob Bell
!!!END: November 2021 to April 2022
!!!PED: Konstantin Igumnov and Yakov Milstein
!!!PTL: A.N. Skryabin: Polnoe sobranie sochinenii dlia fortepiano (Muzgiz)
